!!!COM: Anonim
!!!CDT: [?]
!!!OTL@@LAT: Triumphus Regis Angelorum
!!!TXO: Latin
!!!ODT: 
!!!GTL: Hymnbook E
!!!ARL: Opactwo św. Wojciecha, Staniątki 
!!!voices:	3
**kern	**kern	**text	**kern	**text
*staff3	*staff2	*staff2	*staff1	*staff1
*I"Basso	*I"Canto II	*	*I"Canto I	*
=1-	=1-	=1-	=1-	=1-
*clefF4	*clefG2	*	*clefG2	*
*k[]	*k[]	*	*k[]	*
*met(c|)	*met(c|)	*	*met(c|)	*
*M2/2	*M2/2	*	*M2/2	*
4G\	4b\	Tri-	4dd\	Tri-
4C/	4cc\	-um-	4ee\	-um-
2G\	2b\	-phus	2dd\	-phus
=2	=2	=2	=2	=2
8E\	8g/	Re-	8b\	Re-
8BB/	8b\	-gis	8dd\	-gis
8C/	16a/LL	An-	16cc\LL	An-
.	16b/JJ	.	16dd\JJ	.
8GG/	16a/LL	-ge-	16cc\LL	-ge-
.	16g/JJ	.	16b\JJ	.
4D\	8.g/L	-lo-	4a/	-lo-
.	16f#/Jk	.	.	.
4GG/	4g/	-rum	4g/	-rum
=3	=3	=3	=3	=3
4G\	4b\	fac-	4dd\	fac-
4C/	4cc\	-tus	4ee\	-tus
2G\	2b\	est	2dd\	est
=4	=4	=4	=4	=4
8E\	8g/	a	8b\	a
8BB/	8b\	sum-	8dd\	sum-
8C/	16cc\LL	-mo	16ee\LL	-mo
.	16b\JJ	.	16dd\JJ	.
8G\	16a/LL	cae-	16cc\LL	cae-
.	16g/JJ	.	16b\JJ	.
4D\	8.g/L	-lo-	4a/	-lo-
.	16f#/Jk	.	.	.
4GG/	4g/	-rum	4g/	-rum
=5	=5	=5	=5	=5
!!linebreak:original
8G\	8g/	ex-	8b\	ex-
8G\	8b\	-ci-	8dd\	-ci-
8G\	8.a/	-ta-	8.cc\	-ta-
8G\	.	.	.	.
.	16g/	-vit	16b\	-vit
8BB/	8.b\	pas-	8.dd\	pas-
8D\	.	.	.	.
.	16a/	-to-	16cc\	-to-
4GG/	4g/	-res	4b\	-res
=6	=6	=6	=6	=6
8G\	8g/	gre-	8b\	gre-
8D\	16a/LL	-gis	16cc\LL	-gis
.	16b/JJ	.	16dd\JJ	.
8BB/	8.a/	su-	8.cc\	su-
8GG/	.	.	.	.
.	16g/	-i	16b\	-i
8G\	8b\	tu-	8dd\	tu-
32F\LLL	16a/LL	-to-	16cc\LL	-to-
32E\	.	.	.	.
32F\	16b/JJ	.	16dd\JJ	.
32D\JJJ	.	.	.	.
4G\	4g/	-res	4b\	-res
=7	=7	=7	=7	=7
4C/	16a/LL	can-	16cc\LL	can-
.	16b/	.	16dd\	.
.	16g/	.	16b\	.
.	16a/JJ	.	16cc\JJ	.
16D/LL	4f#/	-tan-	4a/	-tan-
16C/	.	.	.	.
16D/	.	.	.	.
16DD/JJ	.	.	.	.
2GG/	2g/	-do.	2g/	-do.
==	==	==	==	==
*-	*-	*-	*-	*-
!!title: @{OTL}, @{GTL}: @{pag}, ed. @{ENC}
!!!pag: pp. 60v-61r
!!!GTL: Hymnbook E
!!!EFL: 
!!!YEM: Creative Commons CC/BY/NC/SA 4.0
!!!ENC: Marcin Konik
!!!END: 2015-05-08
!!!EED: Marcin Konik
!!!EEV: 
!!!ONB: Encoded in vim by Marcin Konik
!!!CharacterEncoding: utf-8
!!!RDF**kern: l=long note in original notation
!!!RDF**kern: i=editorial accidental
!!muse2ps: z14jc180F
